dist/img/home/service_card_2.svg

<svg width="184" height="183" viewBox="0 0 184 183" fill="none" xmlns="http://www.w3.org/2000/svg">
<path d="M20.9466 123.983L38.0615 133.164M110 171.754L92.6065 162.423M39.1045 114.413L56.2194 123.594M128.158 162.184L110.764 152.854M57.2625 104.844L74.3774 114.025M146.316 152.615L110.555 133.432M75.4204 95.2747L80.7251 98.1203M164.474 143.046L147.08 133.715M110.274 95.1072L105.5 97.6233M19.7638 142.807L38.0615 133.164M128.363 104.811L110.624 114.159M37.8527 152.51L56.1504 142.867M146.173 114.661L128.713 123.863M55.9417 162.214L74.2393 152.571M164.819 124.367L147.08 133.715M74.3089 172.066L92.6065 162.423M56.2194 123.594L38.0615 133.164M56.2194 123.594L74.3083 133.298M56.2194 123.594L74.3774 114.025M38.0615 133.164L56.1504 142.867M56.1504 142.867L74.2393 152.571M56.1504 142.867L74.3083 133.298M74.2393 152.571L92.6065 162.423M74.2393 152.571L92.3973 143.001M92.6065 162.423L110.764 152.854M110.764 152.854L92.3973 143.001M110.764 152.854L128.922 143.285M92.3973 143.001L74.3083 133.298M92.3973 143.001L110.555 133.432M74.3083 133.298L80.5931 129.986M110.624 114.159L128.713 123.863M110.624 114.159L105.5 111.41M110.624 114.159L105.5 116.86M128.713 123.863L147.08 133.715M128.713 123.863L110.555 133.432M147.08 133.715L128.922 143.285M128.922 143.285L110.555 133.432M110.555 133.432L105.5 130.72M74.3774 114.025L80.5931 117.359M74.3774 114.025L80.7251 110.68" stroke="#C8C8C8" stroke-dasharray="2 2"/>
<path d="M105.647 92.6249L182.77 133.996L91.9798 181.843L1.53516 133.325L80.682 91.6145" stroke="#6F6F6F"/>
<line x1="61.6792" y1="62.1447" x2="70.6653" y2="47.2746" stroke="#6F6F6F"/>
<path d="M86.844 80.6534C96.4399 76.3234 97.742 58.4596 89.7524 40.7534C81.7627 23.0472 67.5068 12.2036 57.911 16.5336M86.844 80.6534C77.2482 84.9834 62.9923 74.1399 55.0026 56.4337C47.013 38.7275 48.3151 20.8636 57.911 16.5336M86.844 80.6534L113.471 68.9943C123.066 64.6643 124.369 46.8005 116.379 29.0943C108.389 11.3881 94.1333 0.544544 84.5374 4.87454L57.911 16.5336" stroke="#CA0001"/>
<path d="M105.09 73.0793V133.661C105.09 137.048 99.7444 139.793 93.1501 139.793C86.5557 139.793 81.21 137.048 81.21 133.661V81.7207" stroke="#CA0001"/>
</svg>

<svg width="184" height="183" viewBox="0 0 184 183" fill="none" xmlns="http://www.w3.org/2000/svg"><path d="M20.947 123.983l17.115 9.181M110 171.754l-17.394-9.331m-53.501-48.01l17.114 9.181m71.939 38.59l-17.394-9.33m-53.501-48.01l17.114 9.181m71.939 38.59l-35.761-19.183M75.42 95.275l5.305 2.845m83.749 44.926l-17.394-9.331m-36.806-38.608l-4.774 2.516m-85.736 45.184l18.298-9.643m90.301-28.353l-17.739 9.348M37.853 152.51l18.297-9.643m90.023-28.206l-17.46 9.202m-72.771 38.351l18.297-9.643m90.58-28.204l-17.739 9.348m-72.771 38.351l18.297-9.643M56.22 123.594l-18.157 9.57m18.157-9.57l18.09 9.704m-18.09-9.704l18.158-9.569m-36.315 19.139l18.088 9.703m0 0l18.09 9.704m-18.09-9.704l18.158-9.569m-.069 19.273l18.367 9.852m-18.367-9.852l18.158-9.57m.21 19.422l18.157-9.569m0 0l-18.367-9.853m18.367 9.853l18.158-9.569m-36.525-.284l-18.089-9.703m18.09 9.703l18.157-9.569m-36.247-.134l6.285-3.312m30.031-15.827l18.089 9.704m-18.089-9.704l-5.124-2.749m5.124 2.749l-5.124 2.701m23.213 7.003l18.367 9.852m-18.367-9.852l-18.158 9.569m36.525.283l-18.158 9.57m0 0l-18.367-9.853m0 0l-5.055-2.712m-31.123-16.695l6.216 3.334m-6.216-3.334l6.348-3.345" stroke="#C8C8C8" stroke-dasharray="2 2"/><path d="M105.647 92.625l77.123 41.371-90.79 47.847-90.445-48.518 79.147-41.71m-19.003-29.47l8.986-14.87" stroke="#6F6F6F"/><path d="M86.844 80.653c9.596-4.33 10.898-22.193 2.908-39.9-7.99-17.706-22.245-28.55-31.841-24.22m28.933 64.12c-9.596 4.33-23.852-6.513-31.841-24.22-7.99-17.706-6.688-35.57 2.908-39.9m28.933 64.12l26.627-11.659c9.595-4.33 10.898-22.194 2.908-39.9S94.133.544 84.537 4.874l-26.626 11.66" stroke="#CA0001"/><path d="M105.09 73.08v60.581c0 3.387-5.346 6.132-11.94 6.132-6.594 0-11.94-2.745-11.94-6.132v-51.94" stroke="#CA0001"/></svg>
